X:1
T:Sherburne, LM
T:Sherburne, LM
T:Daniel Read, 1785
T:Public Domain Courtesy of the Cyber Hymnal™
C:Daniel Read, 1785
Z:Public Domain
Z:Courtesy of the Cyber Hymnal™
%%score 1 2 3 4
L:1/8
Q:1/4=118
M:4/4
K:A
V:1 treble 
V:2 treble 
V:3 treble-8 
V:4 bass 
V:1
 e4 | e2 G2 A2 A2 | A4 G4 | A4 G4 | A2 B2 A2 c2 | B4 (B3 A) | G4 G4 | B2 G2 E2 A2 | A4 A4 | G4 B4 | %10
 c2 B2 A2 d2 | c4 B4 | A4 |] %13
V:2
 E4 | E2 E2 E2 F2 | E4 (E3 D) | C4 E4 | E2 E2 E2 F2 | E4 ^D4 | E4 E4 | E2 E2 E2 C2 | F4 E4 | %9
 E4 G4 | A2 G2 A2 F2 | E4 (E3 D) | C4 |] %13
V:3
 E4 | A2 B2 c2 d2 | c4 B4 | A4 B4 | c2 e2 c2 A2 | G4 F4 | E4 B4 | G2 E2 A2 A2 | d4 c4 | B4 e4 | %10
 e2 d2 c2 B2 | A4 G4 | A4 |] %13
V:4
 E,4 | C,2 E,2 A,2 D,2 | E,4 E,4 | A,,4 E,4 | A,2 G,2 A,2 A,,2 | B,,4 B,,4 | E,4 E,4 | %7
 E,2 D,2 C,2 F,2 | D,4 A,,4 | E,4 E,4 | A,2 E,2 F,2 D,2 | E,4 E,4 | A,,4 |] %13

